X: 6996
T: Chicken Gone To Scotland, The
R: strathspey
M: 4/4
K: Adorian
|:A2a2 bage|B2ga gedB|A2a2 bagf|edef gdBG:|
|:A2A2 ede/f/g|A2A2 dGBG|A2A2 edef|gfef gdBG:|

